!!!OTL: Liebeshoffnung. / b. "Gott sah zu seiner Zeit"
!!!ARE: Europa, Mitteleuropa, Deutschland
!!!SCT: A0128C
!!!TXL: @@GMH
!!!YEM: Copyright 1995, estate of Helmut Schaffrath.
**kern	**text
!! Mixed meters:  4/2; 6/2
*M6/2	*
*clefF3	*
*k[b-]	*
*F:	*
=1	=1
{1F	Gott
1A	sah
2G	ʒu
2F	ſei-
=2	=2
1E	-ner
1D}	ʒeyt
{1C	auf
=3	=3
2F	die
1F	men-
2A	-ſchen-
1G	-kind-
=4	=4
0.F}	-der:}
=5	=5
{1F	fandt
1A	ſie
2G	ver-
2F	-ma-
=6	=6
1E	-le-
1D}	-deit
{1C	vnd
=7	=7
2F	gott-
1F	-lo-
2A	-ſe
1G	ſün-
=8	=8
0F}	-er,}
{2r	.
2F	Dacht
=9	=9
*M4/2	*
2A	was
2A	er
2B-	auſ-
2B-	-er-
=10	=10
*M6/2	*
1c	-wel-
1c}	-ten
{1d	ve-
=11	=11
2c	-tern
1B-	vnnd
2A	pro-
1G	-phe-
=12	=12
*M4/2	*
1F	-tenn,
2r}	.
{2F	vorlan-
=13	=13
2A	.
2A	-geſt
2B-	hett
2B-	ver-
=14	=14
1c	ſchworen,
1F}	.
=15	=15
{2A	wen-
2A	-det
2G	ſei-
2F	-nen
=16	=16
*M6/2	*
1E	ʒo-
1D}	-ren
{1C	von
=17	=17
2F	ſein
1F	auſ-
2A	-er-
1G	-ko-
=18	=18
0.\llF}	-ren.
==	==
!!!GTL: Liebeslieder
!!!AGN: Romanze, Ballade, Lied
!! Boehm. Bruedergsgb. 1531 Bl. 9 "Gott sah zu seiner Zeit"
!!!ONB: ESAC (Essen Associative Code) Database: ALTDEU
!!!AMT: irregular
!!!AIN: vox
!!!EED: Helmut Schaffrath
!!!EEV: 1.0
!!@@COMMENT: "b. Ganz unverändert finden wir sie im Böhm. Brüdergsgb. 1531 Bl. 9 zum Siebe:
!!„Gott sah seiner Zeit" wo freilich ein Text mit steter Verwechslung von stumpfen und klingenden Reimen ihr ansgeztvängt ist."
!!@@END:
!!!RDF**kern: l = terminal long
!!!URL-scan: https://rosdok.uni-rostock.de/mcrviewer/recordIdentifier/rosdok_ppn738218359/iview2/phys_0298.iview2?x=-482.67857142857133&y=1668.028078818228&scale=0.4629418472063854&rotation=0&layout=singlePageLayout&logicalDiv=log_0009
!!!ENC: Anna Maria Matuszewska
!!!EEV: 2024/23/02
*-	*-
